X: 309
T:Elzic's Farewell
C:Traditional
M:4/4
L:1/8
Q:1/8=420
K:F
C2|:"Dm"[D2D2] DF DC DF|"G"G2 GA GF DG|\
zF G2 DF GD|1 "Dm"AG F2 D2 C2:|2 "Dm"AGF2 D4|!
|:"Dm"GA z2 AG FE|"F"DE FA GF EC|\
"Dm"D[dA] zD [d2A2] D_E|"C"Ec zd cA G2|!
"Dm"GA z2AG FE|DE FA GF DC|[D2D2] DF DC DE|FD EC D4:|!
|:"Dm"DF DC A,C DE|F2 G_A =AcA2|\
"C"GA GF DC DE|1"Dm"FD EC D4:|2"Dm"FD EC D2|

